X:1
T:La Varsovienne [ok]
R:
S:
N:
A:Champagne
G:
O:France
Z:<anamnese@laposte.net>
M:3/4
L:1/8
Q:1/4=135
K:C
D2 B>B B2 | D2 B>B B2 | D2 B>B B2 | c2 A4 | D2 A>A A2 | D2 A>A A2 | D2 A>A A2 | B2 G4 :|
Bc d2 d2 | e2 c4 | AB c2c2 | d2B4 | GA B2B2 | c2 A4 | ^FG A2A2 | B2 G4 :|
